symbols/web/wb_sunny/materialsymbolsoutlined/wb_sunny_wght300gradN25fill1_48px.svg

<svg xmlns="http://www.w3.org/2000/svg" height="48" width="48"><path d="M22.9 7.6v-5h2.2v5Zm0 37.75V40.4h2.2v4.95ZM40.45 25.1v-2.2h4.95v2.2Zm-37.8 0v-2.2H7.6v2.2ZM36.7 12.85l-1.55-1.6 3-3L39.7 9.8ZM9.9 39.75l-1.6-1.6 3-3 1.6 1.6Zm28.25 0-3-3 1.55-1.6 3 3ZM11.3 12.85l-3-3.05 1.6-1.55 3 3ZM24 34.3q-4.35 0-7.325-3-2.975-3-2.975-7.35 0-4.3 3-7.3t7.3-3q4.35 0 7.35 3.025t3 7.325q0 4.3-3.025 7.3T24 34.3Z"/></svg>

<svg xmlns="http://www.w3.org/2000/svg" height="48" width="48"><path d="M22.9 7.6V2.6H25.1V7.6ZM22.9 45.35V40.4H25.1V45.35ZM40.45 25.1V22.9H45.4V25.1ZM2.65 25.1V22.9H7.6V25.1ZM36.7 12.85 35.15 11.25 38.15 8.25 39.7 9.8ZM9.9 39.75 8.3 38.15 11.3 35.15 12.9 36.75ZM38.15 39.75 35.15 36.75 36.7 35.15 39.7 38.15ZM11.3 12.85 8.3 9.8 9.9 8.25 12.9 11.25ZM24 34.3Q19.65 34.3 16.675 31.3Q13.7 28.3 13.7 23.95Q13.7 19.65 16.7 16.65Q19.7 13.65 24 13.65Q28.35 13.65 31.35 16.675Q34.35 19.7 34.35 24Q34.35 28.3 31.325 31.3Q28.3 34.3 24 34.3Z"/></svg>
